X: 26690
T: Migrant Worker, The
R: polka
M: 2/4
K: Gmajor
|:B2 BA|B2 BG|Bd BG|c2 cB|
A2 AB|cB cd|fd cA|1 de dc:|2 G2 de/f/||
|:gd BG|FG AB|cA fe|d2 df|
gd BG|FG AB|c2 BA|1 G2 de/f/:|2 G2 GA||

